X: 43320
T: Woodstove, The
R: hornpipe
M: 4/4
K: Dmajor
~F3E DFAd|B=cBA GBdg|f/g/age fdec|dAFA GECE|
~F3E DFAd|B=cBA GBdB|Aaaf gecd|1 e/f/edc d2GE:|2 e/f/edc d2cd||
e3f gecA|dcdf afdf|b~g3 afed|B/c/def gece|
dAFE D2 FA|~G3A B/c/dec|Aaaf gecd|1 e/f/edc d2cd:|2 e/f/edc d2AG||

